X:661
T: HIMMELSAU LICHT UND BLAU
N: E2041
O: Europa, Mitteleuropa, Deutschland
R: geistlich, Wallfahrts - Lied
M: 2/4
L: 1/8
K: A
 | A2A2 | B2z2 | c2ed | B4 |
e2e2 | e3d | c2B2 | A2z2 |
A2A2 | B2z2 | B2B2 | c4 |
c2c2 | e2dc | B2cB | A2z2

@@@ Tune index: 5345
